X:1
T:Intermezzo
T:Intermezzo
T:Antonin Dvorak
T:Op. 52 No. 2
C:Antonin Dvorak
%%score { ( 1 3 4 ) | ( 2 5 ) }
L:1/8
Q:1/4=50
M:4/8
K:Eb
V:1 treble nm="Piano" snm="Pno."
V:3 treble 
V:4 treble 
V:2 bass 
V:5 bass 
V:1
!p!"^Larghetto" z [G,E]2 [G,E]- | [G,E] [G,E]2 [G,E-] |: z A2 G- | G/(3F/4G/4F/4=E/F/ B/A/G/(A/- | %4
 A) G2 F- | (F/(3E/4)F/4E/4D/E/ G/F/.C/.D/ | (E A2) G- |!<(! (G/(3F/4)G/4F/4=E/F/ B/A/G/A/-!<)! | %8
!>(! A G2 F-!>)! |!>(! (F/(3E/4)F/4E/4D/!pp!E/ G/F/!fermata!D/E/!>)! ::!pp! (E- e2 [Ed]- | %11
 [Ed]/ c/=B/c/ [Bf]/)e/[E=A]/_B/ |!<(! ((E- e2))"^quasi stringendo" [Ed]-!<)! | %13
 [Ed]/ c/=B/c/!f! [Ff]/[Ee]/[=A,E=A]/[B,_B]/- | %14
 ([B,EB]/[=A,E-=A]/)[^G,E-^G]/[A,EA]/!>(! [F_Af]/[Ee]/=G/_A/-!>)! | %15
!p! (A/(3G/4)A/4"^rit."G/4^F/!pp!G/ _c/B/A/=F/ ::!pp!"^[in tempo]" (E e2 _d- | %17
 d/(3_d/4e/4d/4c/d/ _f/e/=d/e/) | (E e2 _d- |!<(! d/e/_f/=f/!>(! _a/_g/e/_c/)!<)!!>)! | %20
!pp! (_G e2 _d- | d/(3_d/4e/4d/4=c/d/ _f/e/=d/e/) | E e2 _d- | %23
!<(! d/(3_c/4_d/4c/4B/c/"^rit."!>(! e/c/__B/E/!<)!!>)! |"^[in tempo]"!pp! E A2 =G- | %25
 G/(3F/4G/4F/4=E/F/ B/A/G/A/- | (A G2 F-) | (F/(3E/4F/4E/4D/E/"_cresc." G/F/.C/.D/) | (E A2 G- | %29
!<(! G/(3F/4G/4F/4=E/F/ B/A/G/A/-)!<)! |"^rit.\n"!>(! (A G2 F-!>)! | %31
 F/(3E/4F/4E/4D/!pp!E/ G/F/!fermata!D/E/-) :|!ppp! !fermata!E4 |] %33
V:2
!ped! .C,,.E,.C,,.E,!ped-up! | .C,,.E,.C,,.E, |:!ped! .C,,.E,!ped-up!!ped! .B,,,.E,!ped-up! | %3
!ped! .A,,,.E,!ped-up!!ped! .C,,.E,!ped-up! |!ped! .B,,,.E,!ped-up!!ped! .A,,,.E,!ped-up! | %5
!ped! .G,,,.E,!ped-up!!ped! .A,,, .E,/.B,,,/!ped-up! |!ped! .C,,.E,!ped-up!!ped! .B,,,.E,!ped-up! | %7
!ped! .A,,,.E,!ped-up!!ped! .C,,.E,!ped-up! |!ped! .B,,,.E,!ped-up!!ped! .A,,,.E,!ped-up! | %9
!ped! .G,,,.B,,.G,,,!fermata!B,,!ped-up! ::!ped! C,,E,!ped-up!!ped! B,,,E,!ped-up! | %11
!ped! A,,,E,!ped-up!"_cresc."!ped! G,,,E,!ped-up! |!ped! C,,E,!ped-up!!ped! B,,,E,!ped-up! | %13
!ped! A,,,E,!ped-up!!ped! _G,,,E,!ped-up! |!ped! F,,,E,!ped-up!!ped! _C,,_C,!ped-up! | %15
!ped! B,,, B,,-!ped-up!!ped! B,,2!ped-up! ::!ped! _C,[_G,_C]!ped-up!!ped! C,[A,_D]!ped-up! | %17
!ped! _C,[B,_F]!ped-up!!ped! C,[_G,E]!ped-up! |!ped! C,[G,C]!ped-up!!ped! C,[A,D]!ped-up! | %19
!ped! _C,[B,_F]!ped-up!!ped! C,[_G,E]!ped-up! |!ped! _C,,[_G,_C]!ped-up!!ped! C,,[A,_D]!ped-up! | %21
!ped! _C,,[B,_F]!ped-up!!ped! C,,[_G,E]!ped-up! |!ped! _C,,[_G,_C]!ped-up!!ped! C,,[A,_D]!ped-up! | %23
!ped! _C,,[__B,E] z E,!ped-up! |!ped! .=C,,.E,!ped-up!!ped! .B,,,.E,!ped-up! | %25
!ped! .A,,,.E,!ped-up!!ped! .C,,.E,!ped-up! |!ped! .B,,,.E,!ped-up!!ped! .A,,,.E,!ped-up! | %27
!ped! .B,,,.E,!ped-up!!ped! .A,,, .E,/.B,,,/!ped-up! | %28
!ped! .C,,.E,!ped-up!!ped! .B,,,.=E,!ped-up! |!ped! A,,,F,!ped-up!!ped! C,,._E,!ped-up! | %30
!ped! B,,,.E,!ped-up!!ped! A,,,.E,!ped-up! |!ped! G,,,E, G,,,!fermata!G,!ped-up! :| %32
!ped! E,,, !fermata!E,3!ped-up! |] %33
V:3
 x4 | x4 |: E2 D2 | C2 _E2 | D2 C2 | B,2 C z | E2 D2 | C2 _E2 | D2 C2 | !fermata!B,4 :: x E2 D- | %11
 D/ C/=B,/D/ F/E/=A,/_B,/ | x E2 D- | D/ C/B,/C/ z2 | x3 E- | EE D2 :: E2 _F2 | _G4 | E2 _F2 | %19
 _G4 | E2 _F2 | _G4 | E2 _F2 | _G2 E>E- | E2 =D2 | C2 _E2 | D2 =C_C | B,2 =C z | E2 D_D | C2 _E2 | %30
 D_DC_C | !fermata!B,4 :| z !fermata![G,B,]3 |] %33
V:4
 x4 | x4 |: x4 | x4 | x4 | x4 | x4 | x4 | x4 | x4 :: x4 | x/ E3/2 x2 | x4 | x/ E3/2 x2 | z4 | x4 :: %16
 x4 | x4 | x4 | x4 | x4 | x4 | x4 | x4 | x4 | x4 | x4 | x4 | x4 | x4 | x4 | x4 :| x4 |] %33
V:5
 x4 | x4 |: x4 | x4 | x4 | x4 | x4 | x4 | x4 | x4 :: x4 | x4 | x4 | x4 | x2 z G,/A,/ | %15
 x ^F,/G,/ _C/B,/A,/=F,/ :: x4 | x4 | x4 | x4 | x4 | x4 | x4 | x2 _C,2 | x4 | x4 | x4 | x4 | x4 | %29
 x4 | x4 | x4 :| x4 |] %33

